X:1
T:Title
%%score { ( 1 3 ) | ( 2 4 ) }
L:1/8
Q:1/4=112
M:4/4
K:G
V:1 treble nm="Grand Piano"
V:3 treble 
V:2 bass 
V:4 bass 
V:1
 [B,DB]2 [B,DB]2 [B,DA]2 [CDG]2 | B,2 z2 D4 | [B,DG]2 [B,DF]2 [B,DA]2 [B,DG]2 | F6 z2 | %4
w: Robert~Harkness * * *||||
 c2 c2 B2 A2 | E4 F4 | [DG]2 [DB]2 [^CA]2 [CE]2 | A6 z2 | [B,DB]2 [B,DB]2 [B,DA]2 [B,DG]2 | E4 D4 | %10
w: ||||||
 [G,B,DG]2 [DGB]2 [DFc]2 [DGd]2 | e2- [EGe-]2 [E^Ge]2 [EG]2 | [EAc]2 [EAc]2 [EB]2 [EA]2 | d4 D4 | %14
w: ||||
 E2 G2 A3 G |[M:9/8] G6- G z z |[M:4/4] [B,DB]2 [B,DB]2 [B,DA]2 [B,DG]2 | E4[K:bass] D4 | %18
w: ||||
 [B,DG]2 [B,DF]2 [B,DA]2 [B,DG]2 | F6 z2 | [FA]2 [DFA]2 [DGB]2 [DFc]2 | d2- [DGd]2 e2- [Ece]2 | %22
w: ||||
 [GB]2 [GB]2 [Fc]2 [FA]2 |[M:9/8] G6- G z z |] %24
w: ||
V:2
 [G,,D,]2 [D,,D,]2 [G,,D,]2 [D,,D,]2 | [G,,D,]2 D,,2 G,,2 D,,2 | %2
 [G,,D,]2 [D,,D,]2 [G,,D,]2 [D,,D,]2 | [A,,D,]2 [D,,D,]2 [A,,D,]2 [D,,D,]2 | %4
 [D,F,D]2 [D,F,D]2 [D,G,D]2 [D,F,C]2 | [D,G,C]4 [D,A,D]4 | [B,,G,]2 [G,,G,]2 [A,,E,]2 [A,,G,]2 | %7
 [G,C]2 z2 z4 | [G,,D,]2 [D,,D,]2 [G,,D,]2 [D,,D,]2 | [G,,D,]2 D,,2 G,,2 D,,2 | %10
 G,,2 [G,,G,]2 [A,,A,]2 [B,,G,]2 | [C,G,]2 [C,G,]2 [B,,^G,]2 [B,,G,]2 | %12
 [A,,A,]2 [A,,A,]2 [B,,^G,]2 [C,A,]2 | [D,B,D]2 [D,B,]2 [D,G,B,]2 [D,G,]2 | %14
 [D,A,C]2 [D,B,D]2 [D,C]2 [D,C]2 |[M:9/8] [G,B,D]2 [D,B,]- [D,B,] [G,,G,]2- [G,,G,] z z | %16
[M:4/4] [G,,D,]2 [D,,D,]2 [G,,D,]2 [D,,D,]2 | [G,,D,]2 D,,2 G,,2 D,,2 | %18
 [G,,D,]2 [D,,D,]2 [G,,D,]2 [D,,D,]2 | [A,,D,]2 [D,,D,]2 [A,,D,]2 [D,,D,]2 | %20
 [D,D]2 [C,C]2 [B,,B,]2 [A,,A,]2 | [B,,B,]2 [B,,B,]2 [B,,C]2 [A,,A,]2 | %22
 [D,B,D]2 [D,B,D]2 [D,A,D]2 [D,CD]2 |[M:9/8] [G,B,D]2 [D,B,]- [D,B,] [G,,G,]2- [G,,G,] z z |] %24
V:3
 x8 | E2- [D,B,E]2 [D,B,]2 [D,B,]2 | x8 | C2 C2 C2 C2 | x8 | x8 | x8 | z2 F2 E2 D2 | x8 | %9
 B,2 [D,B,]2 [D,B,]2 [D,B,]2 | x8 | [EG]2 z2 z4 | x8 | z2 D2 z2 B,2 | z4 G2 F2 | %15
[M:9/8] z2 D- D B,2- B, z z |[M:4/4] x8 | B,2[K:bass] [D,B,]2 [D,B,]2 [D,B,]2 | x8 | C2 C2 C2 C2 | %20
 x8 | [DG]2 z2 [EG]2 z2 | x8 |[M:9/8] z2 D- D B,2- B, z z |] %24
V:4
 x8 | x8 | x8 | x8 | x8 | x8 | x8 | D,2- [D,-A,]2 [D,-G,]2 [D,F,]2 | x8 | x8 | x8 | x8 | x8 | x8 | %14
 x8 |[M:9/8] x9 |[M:4/4] x8 | x8 | x8 | x8 | x8 | x8 | x8 |[M:9/8] x9 |] %24

